X: 4259
T: BONNIE DOON
%R: jig
B: James Kerr "Merry Melodies" v.4 p.28 #259
Z: 2016 John Chambers <jc:trillian.mit.edu>
M: 6/8
L: 1/8
K: G
D |\
G2G AGA | BdB AGA | BAG GED | DGB A2D |\
G2G AGA | BdB AGA | BAG GED | DEF G2 :|
|: B |\
d2e dBG | d2e dBG | dBG dBG | edB A2D |\
G2G AGA | BdB AGA | BAG GED | DEG G2 :|

%%sep 1 1 500
%%sep 1 1 500

